X:578
T:Sheila Coyle's
R:reel
D:Four Men and a Dog: Barking Mad
Z:id:hn-reel-578
M:C|
K:D
FA~A2 FADF|ADFA BAFD|GBBA ~B3G|ABdf edBA|
FA~A2 FADF|ADFA BAFD|GB~B2 AFDF|EFGE FDD2:|
|:dffe fgfe|dcdB AFDF|Ac~c2 ecAc|~B3A BAFA|
dffe fgfe|dcdB AFDF|GB~B2 AFDF|EFGE FDD2:|
